images/notification-2.svg

<svg width="50" height="50" viewBox="0 0 50 50" fill="none" xmlns="http://www.w3.org/2000/svg">
<path d="M0 8C0 3.58172 3.58172 0 8 0H42C46.4183 0 50 3.58172 50 8V42C50 46.4183 46.4183 50 42 50H8C3.58172 50 0 46.4183 0 42V8Z" fill="#F6F7F8"/>
<path d="M17.4 10H33.6C37.2 10 40.1 12.9 40.1 16.5V33.5C40.1 37.1 37.2 40 33.6 40H17.4C13.8 40 10.9 37.1 10.9 33.5V16.5C10.9 12.9 13.8 10 17.4 10Z" stroke="#FF5678" stroke-width="1.3"/>
<path d="M22 26.2001C23.5 26.2001 24.5 25.2001 24.5 23.8001V21.5001C24.5 20.1001 23.5 19.1001 22 19.1001C20.5 19.1001 19.5 20.1001 19.5 21.5001V23.8001C19.5 25.2001 20.6 26.2001 22 26.2001ZM22.9 31.5001L30.4 20.8001L28.9 19.7001L21.4 30.4001L22.9 31.5001ZM22 24.6001C21.6 24.6001 21.2 24.3001 21.2 23.8001V21.6001C21.1 20.6001 22.8 20.6001 22.7 21.6001V23.8001C22.8 24.2001 22.5 24.6001 22 24.6001ZM29.7 32.2001C31.2 32.2001 32.3 31.2001 32.3 29.8001V27.5001C32.3 26.1001 31.2 25.1001 29.7 25.1001C28.2 25.1001 27.2 26.1001 27.2 27.5001V29.8001C27.2 31.2001 28.3 32.2001 29.7 32.2001ZM29.8 30.6001C29.3 30.6001 29 30.2001 29 29.8001V27.6001C29 27.2001 29.3 26.8001 29.8 26.8001C30.3 26.8001 30.6 27.1001 30.6 27.6001V29.8001C30.5 30.3001 30.2 30.6001 29.8 30.6001Z" fill="#FF5678"/>
</svg>

<svg width="50" height="50" fill="none" xmlns="http://www.w3.org/2000/svg"><path d="M0 8a8 8 0 018-8h34a8 8 0 018 8v34a8 8 0 01-8 8H8a8 8 0 01-8-8V8z" fill="#F6F7F8"/><path d="M17.4 10h16.2c3.6 0 6.5 2.9 6.5 6.5v17c0 3.6-2.9 6.5-6.5 6.5H17.4c-3.6 0-6.5-2.9-6.5-6.5v-17c0-3.6 2.9-6.5 6.5-6.5z" stroke="#FF5678" stroke-width="1.3"/><path d="M22 26.2c1.5 0 2.5-1 2.5-2.4v-2.3c0-1.4-1-2.4-2.5-2.4s-2.5 1-2.5 2.4v2.3c0 1.4 1.1 2.4 2.5 2.4zm.9 5.3l7.5-10.7-1.5-1.1-7.5 10.7 1.5 1.1zm-.9-6.9c-.4 0-.8-.3-.8-.8v-2.2c-.1-1 1.6-1 1.5 0v2.2c.1.4-.2.8-.7.8zm7.7 7.6c1.5 0 2.6-1 2.6-2.4v-2.3c0-1.4-1.1-2.4-2.6-2.4s-2.5 1-2.5 2.4v2.3c0 1.4 1.1 2.4 2.5 2.4zm.1-1.6c-.5 0-.8-.4-.8-.8v-2.2c0-.4.3-.8.8-.8s.8.3.8.8v2.2c-.1.5-.4.8-.8.8z" fill="#FF5678"/></svg>
